antibot/app/images/dist/clicks/bot-icon.svg

<svg width="56" height="50" viewBox="0 0 56 50" fill="none" xmlns="http://www.w3.org/2000/svg">
<path d="M27.998 0C29.3241 0 30.5959 0.526784 31.5336 1.46447C32.4713 2.40215 32.998 3.67392 32.998 5C32.998 6.85 31.998 8.475 30.498 9.325V12.5H32.998C37.6393 12.5 42.0905 14.3437 45.3724 17.6256C48.6543 20.9075 50.4981 25.3587 50.4981 30H52.9981C53.6611 30 54.297 30.2634 54.7658 30.7322C55.2347 31.2011 55.4981 31.837 55.4981 32.5V40C55.4981 40.663 55.2347 41.2989 54.7658 41.7678C54.297 42.2366 53.6611 42.5 52.9981 42.5H50.4981V45C50.4981 46.3261 49.9713 47.5979 49.0336 48.5355C48.0959 49.4732 46.8241 50 45.4981 50H10.498C9.17197 50 7.9002 49.4732 6.96251 48.5355C6.02483 47.5979 5.49805 46.3261 5.49805 45V42.5H2.99805C2.33501 42.5 1.69912 42.2366 1.23028 41.7678C0.761439 41.2989 0.498047 40.663 0.498047 40V32.5C0.498047 31.837 0.761439 31.2011 1.23028 30.7322C1.69912 30.2634 2.33501 30 2.99805 30H5.49805C5.49805 25.3587 7.34179 20.9075 10.6237 17.6256C13.9056 14.3437 18.3568 12.5 22.998 12.5H25.498V9.325C23.998 8.475 22.998 6.85 22.998 5C22.998 3.67392 23.5248 2.40215 24.4625 1.46447C25.4002 0.526784 26.672 0 27.998 0ZM16.748 27.5C15.0904 27.5 13.5007 28.1585 12.3286 29.3306C11.1565 30.5027 10.498 32.0924 10.498 33.75C10.498 35.4076 11.1565 36.9973 12.3286 38.1694C13.5007 39.3415 15.0904 40 16.748 40C18.4057 40 19.9954 39.3415 21.1675 38.1694C22.3396 36.9973 22.998 35.4076 22.998 33.75C22.998 32.0924 22.3396 30.5027 21.1675 29.3306C19.9954 28.1585 18.4057 27.5 16.748 27.5ZM39.2481 27.5C37.5904 27.5 36.0007 28.1585 34.8286 29.3306C33.6565 30.5027 32.998 32.0924 32.998 33.75C32.998 35.4076 33.6565 36.9973 34.8286 38.1694C36.0007 39.3415 37.5904 40 39.2481 40C40.9057 40 42.4954 39.3415 43.6675 38.1694C44.8396 36.9973 45.4981 35.4076 45.4981 33.75C45.4981 32.0924 44.8396 30.5027 43.6675 29.3306C42.4954 28.1585 40.9057 27.5 39.2481 27.5Z" fill="#25C28B"/>
</svg>

<svg width="56" height="50" fill="none" xmlns="http://www.w3.org/2000/svg"><path d="M27.998 0a5 5 0 0 1 5 5c0 1.85-1 3.475-2.5 4.325V12.5h2.5a17.5 17.5 0 0 1 17.5 17.5h2.5a2.5 2.5 0 0 1 2.5 2.5V40a2.5 2.5 0 0 1-2.5 2.5h-2.5V45a5 5 0 0 1-5 5h-35a5 5 0 0 1-5-5v-2.5h-2.5a2.5 2.5 0 0 1-2.5-2.5v-7.5a2.5 2.5 0 0 1 2.5-2.5h2.5a17.5 17.5 0 0 1 17.5-17.5h2.5V9.325A4.96 4.96 0 0 1 22.998 5a5 5 0 0 1 5-5Zm-11.25 27.5a6.25 6.25 0 1 0 0 12.5 6.25 6.25 0 0 0 0-12.5Zm22.5 0a6.25 6.25 0 1 0 0 12.5 6.25 6.25 0 0 0 0-12.5Z" fill="#25C28B"/></svg>
